src/assets/outline/PenTool.svg

<svg width="24" height="24" viewBox="0 0 24 24"  xmlns="http://www.w3.org/2000/svg">
<path d="M13.2698 23.25H10.7498C10.0498 23.25 9.41978 22.9499 8.99978 22.4399C8.62978 21.9799 8.48978 21.39 8.61978 20.83L9.02978 19.02C9.10978 18.68 9.40978 18.4399 9.75978 18.4399H14.2598C14.6098 18.4399 14.9098 18.68 14.9898 19.02L15.3998 20.83C15.5298 21.43 15.4098 22.01 15.0398 22.47C14.6298 22.96 13.9898 23.25 13.2698 23.25ZM10.3598 19.92L10.0798 21.15C10.0498 21.3 10.1098 21.42 10.1698 21.49C10.2998 21.65 10.5098 21.74 10.7498 21.74H13.2698C13.5298 21.74 13.7498 21.66 13.8698 21.51C13.9498 21.41 13.9698 21.29 13.9398 21.14L13.6598 19.91H10.3598V19.92Z" />
<path d="M14.26 19.9198C14.05 19.9198 13.85 19.8398 13.7 19.6698C13.43 19.3598 13.45 18.8897 13.76 18.6097L15.49 17.0697C16.18 16.4597 16.15 16.3098 15.64 15.6698L12.59 11.7997C12.42 11.5897 12.22 11.4697 12.01 11.4697C11.8 11.4697 11.6 11.5897 11.43 11.7997L8.38002 15.6698C7.84002 16.3598 7.85002 16.5098 8.51002 17.0498L10.26 18.6097C10.57 18.8797 10.6 19.3598 10.32 19.6698C10.04 19.9798 9.57002 20.0097 9.26002 19.7297L7.53002 18.1897C6.27002 17.1597 6.16002 16.0597 7.20002 14.7397L10.25 10.8698C10.7 10.2998 11.34 9.96973 12.01 9.96973C12.68 9.96973 13.32 10.2998 13.77 10.8698L16.82 14.7397C17.85 16.0397 17.75 17.0797 16.49 18.1897L14.76 19.7297C14.61 19.8597 14.43 19.9198 14.26 19.9198Z" />
<path d="M12.0098 14.4001C11.5998 14.4001 11.2598 14.0601 11.2598 13.6501V11.1201C11.2598 10.7101 11.5998 10.3701 12.0098 10.3701C12.4198 10.3701 12.7598 10.7101 12.7598 11.1201V13.6501C12.7598 14.0701 12.4198 14.4001 12.0098 14.4001Z" />
<path d="M12 6.29003C11.5 6.29003 11 6.10002 10.62 5.72002L9.84002 4.94006C9.08002 4.18006 9.08002 2.94005 9.84002 2.18005L10.62 1.40008C11.38 0.640078 12.62 0.640078 13.38 1.40008L14.16 2.18005C14.92 2.94005 14.92 4.18006 14.16 4.94006L13.38 5.72002C13 6.10002 12.5 6.29003 12 6.29003ZM12 2.33007C11.88 2.33007 11.77 2.37008 11.68 2.46008L10.9 3.24004C10.82 3.32004 10.77 3.44005 10.77 3.56005C10.77 3.68005 10.82 3.79006 10.9 3.88006L11.68 4.66003C11.85 4.83003 12.15 4.83003 12.32 4.66003L13.1 3.88006C13.18 3.80006 13.23 3.68005 13.23 3.56005C13.23 3.44005 13.18 3.33004 13.1 3.24004L12.32 2.46008C12.23 2.38008 12.12 2.33007 12 2.33007Z" />
<path d="M20.55 14.0601H19.45C18.37 14.0601 17.5 13.18 17.5 12.11V11.0101C17.5 9.93007 18.38 9.06006 19.45 9.06006H20.55C21.63 9.06006 22.5 9.94007 22.5 11.0101V12.11C22.5 13.19 21.62 14.0601 20.55 14.0601ZM19.45 10.5601C19.2 10.5601 19 10.7601 19 11.0101V12.11C19 12.36 19.2 12.5601 19.45 12.5601H20.55C20.8 12.5601 21 12.36 21 12.11V11.0101C21 10.7601 20.8 10.5601 20.55 10.5601H19.45Z" />
<path d="M4.55 14.0601H3.45C2.37 14.0601 1.5 13.18 1.5 12.11V11.0101C1.5 9.93007 2.38 9.06006 3.45 9.06006H4.55C5.63 9.06006 6.5 9.94007 6.5 11.0101V12.11C6.5 13.19 5.62 14.0601 4.55 14.0601ZM3.45 10.5601C3.2 10.5601 3 10.7601 3 11.0101V12.11C3 12.36 3.2 12.5601 3.45 12.5601H4.55C4.8 12.5601 5 12.36 5 12.11V11.0101C5 10.7601 4.8 10.5601 4.55 10.5601H3.45Z" />
<path d="M18.5402 10.8502C18.3502 10.8502 18.1602 10.7802 18.0102 10.6302L12.7102 5.33023C12.4202 5.04023 12.4202 4.56023 12.7102 4.27023C13.0002 3.98023 13.4802 3.98023 13.7702 4.27023L19.0702 9.57022C19.3602 9.86022 19.3602 10.3402 19.0702 10.6302C18.9202 10.7802 18.7302 10.8502 18.5402 10.8502Z" />
<path d="M5.4599 10.8502C5.2699 10.8502 5.0799 10.7802 4.9299 10.6302C4.6399 10.3402 4.6399 9.86022 4.9299 9.57022L10.2299 4.27023C10.5199 3.98023 10.9999 3.98023 11.2899 4.27023C11.5799 4.56023 11.5799 5.04023 11.2899 5.33023L5.9899 10.6302C5.8399 10.7802 5.6499 10.8502 5.4599 10.8502Z" />
</svg>

<?xml version="1.0" encoding="UTF-8"?>
<svg width="24" height="24" viewBox="0 0 24 24" xmlns="http://www.w3.org/2000/svg">
 <path d="m13.27 23.25h-2.52c-0.7 0-1.33-0.3001-1.75-0.8101-0.37-0.46-0.51-1.0499-0.38-1.6099l0.41-1.81c0.08-0.34 0.38-0.5801 0.73-0.5801h4.5c0.35 0 0.65 0.2401 0.73 0.5801l0.41 1.81c0.13 0.6 0.01 1.18-0.36 1.64-0.41 0.49-1.05 0.78-1.77 0.78zm-2.91-3.33-0.28 1.23c-0.03 0.15 0.03 0.27 0.09 0.34 0.13 0.16 0.34 0.25 0.58 0.25h2.52c0.26 0 0.48-0.08 0.6-0.23 0.08-0.1 0.1-0.22 0.07-0.37l-0.28-1.23h-3.3v0.01z"/>
 <path d="m14.26 19.92c-0.21 0-0.41-0.08-0.56-0.25-0.27-0.31-0.25-0.7801 0.06-1.0601l1.73-1.54c0.69-0.61 0.66-0.7599 0.15-1.3999l-3.05-3.8701c-0.17-0.21-0.37-0.33-0.58-0.33s-0.41 0.12-0.58 0.33l-3.05 3.8701c-0.54 0.69-0.53 0.84 0.13 1.38l1.75 1.5599c0.31 0.27 0.34 0.7501 0.06 1.0601s-0.74998 0.3399-1.06 0.0599l-1.73-1.54c-1.26-1.03-1.37-2.13-0.33-3.45l3.05-3.8699c0.45-0.57 1.09-0.90007 1.76-0.90007s1.31 0.33007 1.76 0.90007l3.05 3.8699c1.03 1.3 0.93 2.34-0.33 3.45l-1.73 1.54c-0.15 0.13-0.33 0.1901-0.5 0.1901z"/>
 <path d="m12.01 14.4c-0.41 0-0.75-0.34-0.75-0.75v-2.53c0-0.41 0.34-0.75 0.75-0.75s0.75 0.34 0.75 0.75v2.53c0 0.42-0.34 0.75-0.75 0.75z"/>
 <path d="m12 6.29c-0.5 0-1-0.19001-1.38-0.57001l-0.77998-0.77996c-0.76-0.76-0.76-2 0-2.76l0.77998-0.77997c0.76-0.76 2-0.76 2.76 0l0.78 0.77997c0.76 0.76 0.76 2 0 2.76l-0.78 0.77996c-0.38 0.38-0.88 0.57001-1.38 0.57001zm0-3.96c-0.12 0-0.23 0.04001-0.32 0.13001l-0.78 0.77996c-0.08 0.08-0.13 0.20001-0.13 0.32001s0.05 0.23001 0.13 0.32001l0.78 0.77997c0.17 0.17 0.47 0.17 0.64 0l0.78-0.77997c0.08-0.08 0.13-0.20001 0.13-0.32001s-0.05-0.23001-0.13-0.32001l-0.78-0.77996c-0.09-0.08-0.2-0.13001-0.32-0.13001z"/>
 <path d="m20.55 14.06h-1.1c-1.08 0-1.95-0.8801-1.95-1.9501v-1.0999c0-1.08 0.88-1.95 1.95-1.95h1.1c1.08 0 1.95 0.88001 1.95 1.95v1.0999c0 1.08-0.88 1.9501-1.95 1.9501zm-1.1-3.5c-0.25 0-0.45 0.2-0.45 0.45v1.0999c0 0.25 0.2 0.4501 0.45 0.4501h1.1c0.25 0 0.45-0.2001 0.45-0.4501v-1.0999c0-0.25-0.2-0.45-0.45-0.45h-1.1z"/>
 <path d="m4.55 14.06h-1.1c-1.08 0-1.95-0.8801-1.95-1.9501v-1.0999c0-1.08 0.88-1.95 1.95-1.95h1.1c1.08 0 1.95 0.88001 1.95 1.95v1.0999c0 1.08-0.88 1.9501-1.95 1.9501zm-1.1-3.5c-0.25 0-0.45 0.2-0.45 0.45v1.0999c0 0.25 0.2 0.4501 0.45 0.4501h1.1c0.25 0 0.45-0.2001 0.45-0.4501v-1.0999c0-0.25-0.2-0.45-0.45-0.45h-1.1z"/>
 <path d="m18.54 10.85c-0.19 0-0.38-0.07-0.53-0.22l-5.3-5.3c-0.29-0.29-0.29-0.77 0-1.06s0.77-0.29 1.06 0l5.3 5.3c0.29 0.29 0.29 0.76998 0 1.06-0.15 0.15-0.34 0.22-0.53 0.22z"/>
 <path d="m5.4599 10.85c-0.19 0-0.38-0.07-0.53-0.22-0.29-0.29-0.29-0.76998 0-1.06l5.3-5.3c0.29-0.29 0.77-0.29 1.06 0s0.29 0.77 0 1.06l-5.3 5.3c-0.15 0.15-0.34 0.22-0.53 0.22z"/>
</svg>
